X: 117
T: Clydesdale Lasses
T: Reel, F
L: 1/16
M: C|
K: F
|: B2| A2F2c2F2 d2F2c2F2| A2F2c2F2 A2B2c2B2| A2F2c2F2 d2F2c2F2| B2A2G2A2 B2c2d2:| 
|: e2| f2g2a2g2 f4c2f2| g2f2g2a2 b2g2e2g2| f2g2a2g2 f2c2A2c2| B2A2G2A2 B2c2d2:| 
D: Stephanie Wills, Tradition Continued, STEPH 1-94
D: Brenda Stubbert, In Jig Time!, Celestial Entertainment 001
